static/img/kroki/7f9fb23ea49c779ee66be30594fed9b8.svg

<?xml version="1.0" encoding="us-ascii" standalone="no"?><svg xmlns="http://www.w3.org/2000/svg" xmlns:xlink="http://www.w3.org/1999/xlink" contentStyleType="text/css" height="252px" preserveAspectRatio="none" style="width:593px;height:252px;" version="1.1" viewBox="0 0 593 252" width="593px" zoomAndPan="magnify"><defs/><g><!--class aws_cloudfront_distribution--><g id="elem_aws_cloudfront_distribution"><rect codeLine="22" fill="#3D176E" height="39.7891" id="aws_cloudfront_distribution" rx="2.5" ry="2.5" style="stroke:#000D19;stroke-width:0.5;" width="274" x="7" y="106.79"/><ellipse cx="22" cy="126.6845" fill="#ADD1B2" rx="11" ry="11" style="stroke:#181818;stroke-width:1.0;"/><path d="M24.9688,132.3252 Q24.3906,132.622 23.75,132.7627 Q23.1094,132.9189 22.4063,132.9189 Q19.9063,132.9189 18.5781,131.2783 Q17.2656,129.622 17.2656,126.497 Q17.2656,123.372 18.5781,121.7158 Q19.9063,120.0595 22.4063,120.0595 Q23.1094,120.0595 23.75,120.2158 Q24.4063,120.372 24.9688,120.6689 L24.9688,123.3877 Q24.3438,122.8095 23.75,122.5439 Q23.1563,122.2627 22.5313,122.2627 Q21.1875,122.2627 20.5,123.3408 Q19.8125,124.4033 19.8125,126.497 Q19.8125,128.5908 20.5,129.6689 Q21.1875,130.7314 22.5313,130.7314 Q23.1563,130.7314 23.75,130.4658 Q24.3438,130.1845 24.9688,129.6064 L24.9688,132.3252 Z " fill="#000000"/><text fill="#D9B8FF" font-family="Helvetica" font-size="17" lengthAdjust="spacing" textLength="232" x="41" y="132.5698">aws_cloudfront_distribution</text></g><!--class aws_iam_server_certificate--><g id="elem_aws_iam_server_certificate"><rect codeLine="24" fill="#3D176E" height="39.7891" id="aws_iam_server_certificate" rx="2.5" ry="2.5" style="stroke:#000D19;stroke-width:0.5;" width="269" x="199.5" y="206.58"/><ellipse cx="214.5" cy="226.4745" fill="#ADD1B2" rx="11" ry="11" style="stroke:#181818;stroke-width:1.0;"/><path d="M217.4688,232.1152 Q216.8906,232.412 216.25,232.5527 Q215.6094,232.7089 214.9063,232.7089 Q212.4063,232.7089 211.0781,231.0683 Q209.7656,229.412 209.7656,226.287 Q209.7656,223.162 211.0781,221.5058 Q212.4063,219.8495 214.9063,219.8495 Q215.6094,219.8495 216.25,220.0058 Q216.9063,220.162 217.4688,220.4589 L217.4688,223.1777 Q216.8438,222.5995 216.25,222.3339 Q215.6563,222.0527 215.0313,222.0527 Q213.6875,222.0527 213,223.1308 Q212.3125,224.1933 212.3125,226.287 Q212.3125,228.3808 213,229.4589 Q213.6875,230.5214 215.0313,230.5214 Q215.6563,230.5214 216.25,230.2558 Q216.8438,229.9745 217.4688,229.3964 L217.4688,232.1152 Z " fill="#000000"/><text fill="#D9B8FF" font-family="Helvetica" font-size="17" lengthAdjust="spacing" textLength="227" x="233.5" y="232.3598">aws_iam_server_certificate</text></g><!--class aws_region--><g id="elem_aws_region"><rect codeLine="26" fill="#3D176E" height="39.7891" id="aws_region" rx="2.5" ry="2.5" style="stroke:#000D19;stroke-width:0.5;" width="137" x="341.5" y="7"/><ellipse cx="356.5" cy="26.8945" fill="#ADD1B2" rx="11" ry="11" style="stroke:#181818;stroke-width:1.0;"/><path d="M359.4688,32.5352 Q358.8906,32.832 358.25,32.9727 Q357.6094,33.1289 356.9063,33.1289 Q354.4063,33.1289 353.0781,31.4883 Q351.7656,29.832 351.7656,26.707 Q351.7656,23.582 353.0781,21.9258 Q354.4063,20.2695 356.9063,20.2695 Q357.6094,20.2695 358.25,20.4258 Q358.9063,20.582 359.4688,20.8789 L359.4688,23.5977 Q358.8438,23.0195 358.25,22.7539 Q357.6563,22.4727 357.0313,22.4727 Q355.6875,22.4727 355,23.5508 Q354.3125,24.6133 354.3125,26.707 Q354.3125,28.8008 355,29.8789 Q355.6875,30.9414 357.0313,30.9414 Q357.6563,30.9414 358.25,30.6758 Q358.8438,30.3945 359.4688,29.8164 L359.4688,32.5352 Z " fill="#000000"/><text fill="#D9B8FF" font-family="Helvetica" font-size="17" lengthAdjust="spacing" textLength="95" x="375.5" y="32.7798">aws_region</text></g><!--class aws_service_quota--><g id="elem_aws_service_quota"><rect codeLine="28" fill="#3D176E" height="39.7891" id="aws_service_quota" rx="2.5" ry="2.5" style="stroke:#000D19;stroke-width:0.5;" width="199" x="387.5" y="106.79"/><ellipse cx="402.5" cy="126.6845" fill="#ADD1B2" rx="11" ry="11" style="stroke:#181818;stroke-width:1.0;"/><path d="M405.4688,132.3252 Q404.8906,132.622 404.25,132.7627 Q403.6094,132.9189 402.9063,132.9189 Q400.4063,132.9189 399.0781,131.2783 Q397.7656,129.622 397.7656,126.497 Q397.7656,123.372 399.0781,121.7158 Q400.4063,120.0595 402.9063,120.0595 Q403.6094,120.0595 404.25,120.2158 Q404.9063,120.372 405.4688,120.6689 L405.4688,123.3877 Q404.8438,122.8095 404.25,122.5439 Q403.6563,122.2627 403.0313,122.2627 Q401.6875,122.2627 401,123.3408 Q400.3125,124.4033 400.3125,126.497 Q400.3125,128.5908 401,129.6689 Q401.6875,130.7314 403.0313,130.7314 Q403.6563,130.7314 404.25,130.4658 Q404.8438,130.1845 405.4688,129.6064 L405.4688,132.3252 Z " fill="#000000"/><text fill="#D9B8FF" font-family="Helvetica" font-size="17" lengthAdjust="spacing" textLength="157" x="421.5" y="132.5698">aws_service_quota</text></g><!--link aws_cloudfront_distribution to aws_iam_server_certificate--><g id="link_aws_cloudfront_distribution_aws_iam_server_certificate"><path codeLine="30" d="M181.54,147.01 C214.85,164.15 257.9155,186.3135 291.2055,203.4535 " fill="none" id="aws_cloudfront_distribution-to-aws_iam_server_certificate" style="stroke:#1A83AF;stroke-width:2.0;"/><polygon fill="#1A83AF" points="296.54,206.2,290.3693,198.5239,292.0946,203.9112,286.7073,205.6365,296.54,206.2" style="stroke:#1A83AF;stroke-width:2.0;"/></g><!--link aws_region to aws_iam_server_certificate--><g id="link_aws_region_aws_iam_server_certificate"><path codeLine="31" d="M399,47.23 C390.35,62.94 378.41,85.84 370,106.79 C356.28,140.96 346.3214,176.6283 340.2214,200.3983 " fill="none" id="aws_region-to-aws_iam_server_certificate" style="stroke:#1A83AF;stroke-width:2.0;"/><polygon fill="#1A83AF" points="338.73,206.21,344.8416,198.4868,339.9729,201.3669,337.0927,196.4982,338.73,206.21" style="stroke:#1A83AF;stroke-width:2.0;"/></g><!--link aws_region to aws_service_quota--><g id="link_aws_region_aws_service_quota"><path codeLine="32" d="M425.21,47.22 C438.71,64.36 454.6192,84.5551 468.1092,101.6951 " fill="none" id="aws_region-to-aws_service_quota" style="stroke:#1A83AF;stroke-width:2.0;"/><polygon fill="#1A83AF" points="471.82,106.41,469.397,96.8638,468.7277,102.481,463.1105,101.8116,471.82,106.41" style="stroke:#1A83AF;stroke-width:2.0;"/></g><!--link aws_service_quota to aws_iam_server_certificate--><g id="link_aws_service_quota_aws_iam_server_certificate"><path codeLine="33" d="M456.77,147.01 C429.95,164.15 396.0247,185.8273 369.2247,202.9673 " fill="none" id="aws_service_quota-to-aws_iam_server_certificate" style="stroke:#1A83AF;stroke-width:2.0;"/><polygon fill="#1A83AF" points="364.17,206.2,373.9071,204.7207,368.3822,203.5061,369.5968,197.9812,364.17,206.2" style="stroke:#1A83AF;stroke-width:2.0;"/></g><!--SRC=[hP91Jm8n48Nl-okQS2PX9GfSJ5OIeXTYn9incw6TGiDkYzDP21h_kwoeALjPF7Zj-sRUUvCkZKA1vPfteiHoZkGJlp9s3GIbo8ZSTkmAHwAZDUZ-e2bEdEMpm1HA5BTOR92DX2Rnk3HoPT5xSH58Do1N2tALLOVrJ63zNaBB0JKkmFkCcSoyOWp2gD5yg7MJR2xjz5KwkC88SwIGlf1UhwVIKHCvQzNQ-uUOcLSKQNYqgMECOaOMdrHhofe8GaP5l_MJ6Uz1AMCNuZ9uUpXa8ejqz3vRWdBRcjPG-D36Cn8wtgrn7BN2qL3fmQ_mtIbOrfSJiFMvB5obDEqhvChummympegtv3sW39IvHzeWvHA9ZTwNP6n0X8juifuo4lENoZ5yQcsktQTEcWtxsUIvUzrYd0Hs_p5o53A9O__HumC0]--></g></svg>

<svg xmlns="http://www.w3.org/2000/svg" width="593" height="252" viewBox="0 0 593 252"><rect width="274" height="39.789" x="7" y="106.79" fill="#3D176E" rx="2.5" ry="2.5" style="stroke:#000d19;stroke-width:.5"/><circle cx="22" cy="126.684" r="11" fill="#ADD1B2" style="stroke:#181818;stroke-width:1"/><path d="M24.969 132.325q-.578.297-1.219.438-.64.156-1.344.156-2.5 0-3.828-1.64-1.312-1.657-1.312-4.782t1.312-4.781q1.328-1.656 3.828-1.656.703 0 1.344.156.656.156 1.219.453v2.719q-.625-.579-1.219-.844-.594-.281-1.219-.281-1.343 0-2.031 1.078-.687 1.062-.687 3.156t.687 3.172q.688 1.062 2.031 1.062.625 0 1.219-.265.594-.281 1.219-.86z"/><text x="41" y="132.57" fill="#D9B8FF" font-family="Helvetica" font-size="17" textLength="232">aws_cloudfront_distribution</text><rect width="269" height="39.789" x="199.5" y="206.58" fill="#3D176E" rx="2.5" ry="2.5" style="stroke:#000d19;stroke-width:.5"/><circle cx="214.5" cy="226.475" r="11" fill="#ADD1B2" style="stroke:#181818;stroke-width:1"/><path d="M217.469 232.115q-.578.297-1.219.438-.64.156-1.344.156-2.5 0-3.828-1.64-1.312-1.657-1.312-4.782t1.312-4.781q1.328-1.656 3.828-1.656.703 0 1.344.156.656.156 1.219.453v2.719q-.625-.578-1.219-.844-.594-.281-1.219-.281-1.344 0-2.031 1.078-.687 1.062-.687 3.156t.687 3.172q.688 1.062 2.031 1.062.625 0 1.219-.265.594-.281 1.219-.86z"/><text x="233.5" y="232.36" fill="#D9B8FF" font-family="Helvetica" font-size="17" textLength="227">aws_iam_server_certificate</text><rect width="137" height="39.789" x="341.5" y="7" fill="#3D176E" rx="2.5" ry="2.5" style="stroke:#000d19;stroke-width:.5"/><circle cx="356.5" cy="26.895" r="11" fill="#ADD1B2" style="stroke:#181818;stroke-width:1"/><path d="M359.469 32.535q-.578.297-1.219.438-.64.156-1.344.156-2.5 0-3.828-1.64-1.312-1.657-1.312-4.782t1.312-4.781q1.328-1.656 3.828-1.656.703 0 1.344.156.656.156 1.219.453v2.719q-.625-.578-1.219-.844-.594-.281-1.219-.281-1.344 0-2.031 1.078-.687 1.062-.687 3.156t.687 3.172q.688 1.062 2.031 1.062.625 0 1.219-.265.594-.281 1.219-.86z"/><text x="375.5" y="32.78" fill="#D9B8FF" font-family="Helvetica" font-size="17" textLength="95">aws_region</text><rect width="199" height="39.789" x="387.5" y="106.79" fill="#3D176E" rx="2.5" ry="2.5" style="stroke:#000d19;stroke-width:.5"/><circle cx="402.5" cy="126.684" r="11" fill="#ADD1B2" style="stroke:#181818;stroke-width:1"/><path d="M405.469 132.325q-.578.297-1.219.438-.64.156-1.344.156-2.5 0-3.828-1.64-1.312-1.657-1.312-4.782t1.312-4.781q1.328-1.656 3.828-1.656.703 0 1.344.156.656.156 1.219.453v2.719q-.625-.579-1.219-.844-.594-.281-1.219-.281-1.344 0-2.031 1.078-.687 1.062-.687 3.156t.687 3.172q.688 1.062 2.031 1.062.625 0 1.219-.265.594-.281 1.219-.86z"/><text x="421.5" y="132.57" fill="#D9B8FF" font-family="Helvetica" font-size="17" textLength="157">aws_service_quota</text><path fill="none" d="M181.54 147.01c33.31 17.14 76.376 39.304 109.665 56.444" style="stroke:#1a83af;stroke-width:2"/><path fill="#1A83AF" d="m296.54 206.2-6.17-7.676 1.725 5.387-5.388 1.726z" style="stroke:#1a83af;stroke-width:2"/><path fill="none" d="M399 47.23c-8.65 15.71-20.59 38.61-29 59.56-13.72 34.17-23.679 69.838-29.779 93.608" style="stroke:#1a83af;stroke-width:2"/><path fill="#1A83AF" d="m338.73 206.21 6.112-7.723-4.87 2.88-2.88-4.869z" style="stroke:#1a83af;stroke-width:2"/><path fill="none" d="M425.21 47.22c13.5 17.14 29.41 37.335 42.9 54.475" style="stroke:#1a83af;stroke-width:2"/><path fill="#1A83AF" d="m471.82 106.41-2.423-9.546-.67 5.617-5.616-.67z" style="stroke:#1a83af;stroke-width:2"/><path fill="none" d="M456.77 147.01c-26.82 17.14-60.745 38.817-87.545 55.957" style="stroke:#1a83af;stroke-width:2"/><path fill="#1A83AF" d="m364.17 206.2 9.737-1.48-5.525-1.214 1.215-5.525z" style="stroke:#1a83af;stroke-width:2"/></svg>
